src/assets/LaTeX_logo.svg

<?xml version="1.0" encoding="UTF-8"?>
<svg height="500" overflow="scroll" width="1200" xmlns="http://www.w3.org/2000/svg">
 <path d="m5.46 4.23h-.25c-.1 1.02-.24 2.26-2 2.26h-.81c-.47 0-.49-.07-.49-.4v-5.31c0-.34 0-.48.94-.48h.33v-.3c-.36.03-1.26.03-1.67.03-.39 0-1.17 0-1.51-.03v.3h.23c.77 0 .79.11.79.47v5.25c0 .36-.02.47-.79.47h-.23v.31h5.19z" transform="matrix(45 0 0 45 40 47.65)"/>
 <path d="m2.81.16c-.04-.12-.06-.16-.19-.16s-.16.04-.2.16l-1.61 4.08c-.07.17-.19.48-.81.48v.25h1.55v-.25c-.31 0-.5-.14-.5-.34 0-.05.01-.07.03-.14 0 0 .34-.86.34-.86h1.98l.4 1.02c.02.04.04.09.04.12 0 .2-.38.2-.57.2v.25h1.97v-.25h-.14c-.47 0-.52-.07-.59-.27 0 0-1.7-4.29-1.7-4.29zm-.4.71.89 2.26h-1.78z" transform="matrix(45 0 0 45 151.6 40)"/>
 <path d="m6.27 0h-6.09s-.18 2.24-.18 2.24h.24c.14-1.61.29-1.94 1.8-1.94.18 0 .44 0 .54.02.21.04.21.15.21.38v5.25c0 .34 0 .48-1.05.48h-.4v.31c.41-.03 1.42-.03 1.88-.03s1.49 0 1.9.03v-.31h-.4c-1.05 0-1.05-.14-1.05-.48v-5.25c0-.2 0-.34.18-.38.11-.02.38-.02.57-.02 1.5 0 1.65.33 1.79 1.94h.25s-.19-2.24-.19-2.24z" transform="matrix(45 0 0 45 356.35 50.35)"/>
 <path d="m6.16 4.2h-.25c-.25 1.53-.48 2.26-2.19 2.26h-1.32c-.47 0-.49-.07-.49-.4v-2.66h.89c.97 0 1.08.32 1.08 1.17h.25v-2.64h-.25c0 .85-.11 1.16-1.08 1.16h-.89v-2.39c0-.33.02-.4.49-.4h1.28c1.53 0 1.79.55 1.95 1.94h.25l-.28-2.24h-5.6v.3h.23c.77 0 .79.11.79.47v5.22c0 .36-.02.47-.79.47h-.23v.31h5.74z" transform="matrix(45 0 0 45 602.5 150.25)"/>
 <path d="m3.76 2.95 1.37-2c.21-.32.55-.64 1.44-.65v-.3h-2.38v.3c.4.01.62.23.62.46 0 .1-.02.12-.09.23 0 0-1.14 1.68-1.14 1.68l-1.28-1.92c-.02-.03-.07-.11-.07-.15 0-.12.22-.29.64-.3v-.3c-.34.03-1.07.03-1.45.03-.31 0-.93-.01-1.3-.03v.3h.19c.55 0 .74.07.93.35 0 0 1.83 2.77 1.83 2.77l-1.63 2.41c-.14.2-.44.66-1.44.66v.31h2.38v-.31c-.46-.01-.63-.28-.63-.46 0-.09.03-.13.1-.24l1.41-2.09 1.58 2.38c.02.04.05.08.05.11 0 .12-.22.29-.65.3v.31c.35-.03 1.08-.03 1.45-.03.42 0 .88.01 1.3.03v-.31h-.19c-.52 0-.73-.05-.94-.36 0 0-2.1-3.18-2.1-3.18z" transform="matrix(45 0 0 45 845.95 47.65)"/>
</svg>

<?xml version="1.0" encoding="UTF-8" standalone="no"?>
<svg
   height="1200"
   overflow="scroll"
   width="1200"
   version="1.1"
   id="svg12"
   sodipodi:docname="LaTeX_logo.svg"
   inkscape:version="1.1.1 (3bf5ae0d25, 2021-09-20)"
   xmlns:inkscape="http://www.inkscape.org/namespaces/inkscape"
   xmlns:sodipodi="http://sodipodi.sourceforge.net/DTD/sodipodi-0.dtd"
   xmlns="http://www.w3.org/2000/svg"
   xmlns:svg="http://www.w3.org/2000/svg">
  <defs
     id="defs16" />
  <sodipodi:namedview
     id="namedview14"
     pagecolor="#ffffff"
     bordercolor="#666666"
     borderopacity="1.0"
     inkscape:pageshadow="2"
     inkscape:pageopacity="0.0"
     inkscape:pagecheckerboard="0"
     showgrid="false"
     inkscape:zoom="0.49625"
     inkscape:cx="708.31234"
     inkscape:cy="532.99748"
     inkscape:window-width="1680"
     inkscape:window-height="987"
     inkscape:window-x="-8"
     inkscape:window-y="-8"
     inkscape:window-maximized="1"
     inkscape:current-layer="svg12" />
  <g
     id="g1022"
     transform="matrix(1.0503554,0,0,1.0503554,-30.475801,340.08956)">
    <path
       d="M 5.46,4.23 H 5.21 c -0.1,1.02 -0.24,2.26 -2,2.26 H 2.4 C 1.93,6.49 1.91,6.42 1.91,6.09 V 0.78 c 0,-0.34 0,-0.48 0.94,-0.48 H 3.18 V 0 C 2.82,0.03 1.92,0.03 1.51,0.03 1.12,0.03 0.34,0.03 0,0 V 0.3 H 0.23 C 1,0.3 1.02,0.41 1.02,0.77 V 6.02 C 1.02,6.38 1,6.49 0.23,6.49 H 0 V 6.8 h 5.19 z"
       transform="matrix(45,0,0,45,40,47.65)"
       id="path2" />
    <path
       d="M 2.81,0.16 C 2.77,0.04 2.75,0 2.62,0 2.49,0 2.46,0.04 2.42,0.16 L 0.81,4.24 C 0.74,4.41 0.62,4.72 0,4.72 V 4.97 H 1.55 V 4.72 c -0.31,0 -0.5,-0.14 -0.5,-0.34 0,-0.05 0.01,-0.07 0.03,-0.14 0,0 0.34,-0.86 0.34,-0.86 H 3.4 L 3.8,4.4 c 0.02,0.04 0.04,0.09 0.04,0.12 0,0.2 -0.38,0.2 -0.57,0.2 V 4.97 H 5.24 V 4.72 H 5.1 c -0.47,0 -0.52,-0.07 -0.59,-0.27 0,0 -1.7,-4.29 -1.7,-4.29 z M 2.41,0.87 3.3,3.13 H 1.52 Z"
       transform="matrix(45,0,0,45,151.6,40)"
       id="path4" />
    <path
       d="M 6.27,0 H 0.18 C 0.18,0 0,2.24 0,2.24 H 0.24 C 0.38,0.63 0.53,0.3 2.04,0.3 c 0.18,0 0.44,0 0.54,0.02 0.21,0.04 0.21,0.15 0.21,0.38 v 5.25 c 0,0.34 0,0.48 -1.05,0.48 H 1.34 V 6.74 C 1.75,6.71 2.76,6.71 3.22,6.71 c 0.46,0 1.49,0 1.9,0.03 V 6.43 H 4.72 C 3.67,6.43 3.67,6.29 3.67,5.95 V 0.7 c 0,-0.2 0,-0.34 0.18,-0.38 C 3.96,0.3 4.23,0.3 4.42,0.3 c 1.5,0 1.65,0.33 1.79,1.94 H 6.46 C 6.46,2.24 6.27,0 6.27,0 Z"
       transform="matrix(45,0,0,45,356.35,50.35)"
       id="path6" />
    <path
       d="M 6.16,4.2 H 5.91 C 5.66,5.73 5.43,6.46 3.72,6.46 H 2.4 C 1.93,6.46 1.91,6.39 1.91,6.06 V 3.4 H 2.8 c 0.97,0 1.08,0.32 1.08,1.17 H 4.13 V 1.93 H 3.88 C 3.88,2.78 3.77,3.09 2.8,3.09 H 1.91 V 0.7 C 1.91,0.37 1.93,0.3 2.4,0.3 h 1.28 c 1.53,0 1.79,0.55 1.95,1.94 H 5.88 L 5.6,0 H 0 V 0.3 H 0.23 C 1,0.3 1.02,0.41 1.02,0.77 V 5.99 C 1.02,6.35 1,6.46 0.23,6.46 H 0 v 0.31 h 5.74 z"
       transform="matrix(45,0,0,45,602.5,150.25)"
       id="path8" />
    <path
       d="m 3.76,2.95 1.37,-2 C 5.34,0.63 5.68,0.31 6.57,0.3 V 0 H 4.19 v 0.3 c 0.4,0.01 0.62,0.23 0.62,0.46 0,0.1 -0.02,0.12 -0.09,0.23 0,0 -1.14,1.68 -1.14,1.68 L 2.3,0.75 C 2.28,0.72 2.23,0.64 2.23,0.6 2.23,0.48 2.45,0.31 2.87,0.3 V 0 C 2.53,0.03 1.8,0.03 1.42,0.03 1.11,0.03 0.49,0.02 0.12,0 v 0.3 h 0.19 c 0.55,0 0.74,0.07 0.93,0.35 0,0 1.83,2.77 1.83,2.77 L 1.44,5.83 C 1.3,6.03 1,6.49 0,6.49 V 6.8 H 2.38 V 6.49 C 1.92,6.48 1.75,6.21 1.75,6.03 1.75,5.94 1.78,5.9 1.85,5.79 L 3.26,3.7 4.84,6.08 c 0.02,0.04 0.05,0.08 0.05,0.11 0,0.12 -0.22,0.29 -0.65,0.3 V 6.8 C 4.59,6.77 5.32,6.77 5.69,6.77 c 0.42,0 0.88,0.01 1.3,0.03 V 6.49 H 6.8 c -0.52,0 -0.73,-0.05 -0.94,-0.36 0,0 -2.1,-3.18 -2.1,-3.18 z"
       transform="matrix(45,0,0,45,845.95,47.65)"
       id="path10" />
  </g>
</svg>
